X:65
T:Jack upon the Green
A:Wyresdale, Lancashire
B:A John Winder Book, April 1789
L:1/8
M:none
O:England
Z:Richard Robinson 
%%TUNEURL: http://www.leeds.ac.uk/music/Info/RRTuneBk/gettune/00000dbd.html
%%ID:00000dbd
K:D
A|\
d2d d2c | B2B e2e | e2d c2A | d2d d2c | B2c d2B | F2E D3 ::
ED2 DE2 | DF2 AD2 | DE2 EF2 | D2D E2E | F2A d2A | F2E D3:|
